24x24/devices/gnome-dev-wavelan.svg

<svg height="24" width="24" xmlns="http://www.w3.org/2000/svg"><path d="m12.04 5.5c-3.795 0-7.209 1.313-10.04 3.348l10.04 10.652 9.96-10.69c-2.821-2.013-6.197-3.31-9.96-3.31z" opacity=".2"/><path d="m12.04 5c-3.795 0-7.209 1.312-10.04 3.348l10.04 10.652 9.96-10.69c-2.821-2.013-6.197-3.31-9.96-3.31z" fill="#4f4f4f"/><path d="m12 7.797c-3.022 0-5.826.965-8.078 2.595l8.12 8.608 8.036-8.609a13.758 13.758 0 0 0 -8.078-2.594z" fill="#797979"/><g fill="#f4f4f7"><path d="m12 10.598c-2.266 0-4.37.723-6.059 1.946l6.09 6.456 6.027-6.456a10.317 10.317 0 0 0 -6.058-1.946z"/><path d="m12.04 5c-3.795 0-7.209 1.313-10.04 3.348l.27.286c2.778-1.928 6.094-3.167 9.77-3.167 3.646 0 6.925 1.224 9.691 3.13l.269-.287c-2.822-2.013-6.198-3.31-9.962-3.31z" opacity=".1"/><path d="m12 7.796a13.76 13.76 0 0 0 -8.078 2.596l.27.286a13.758 13.758 0 0 1 7.808-2.415c2.905 0 5.603.9 7.808 2.417l.27-.288a13.752 13.752 0 0 0 -8.078-2.596z" opacity=".1"/><path d="m12 10.597c-2.266 0-4.37.724-6.059 1.947l.27.286a10.32 10.32 0 0 1 5.789-1.766c2.15 0 4.147.658 5.79 1.768l.268-.288a10.313 10.313 0 0 0 -6.057-1.947z" opacity=".1"/></g></svg>

<svg xmlns="http://www.w3.org/2000/svg" width="24" height="24" version="1"><path style="opacity:.2" d="M12.04 5.5C8.245 5.5 4.831 6.813 2 8.848L12.04 19.5 22 8.81c-2.821-2.013-6.197-3.31-9.96-3.31z"/><path style="fill:#4f4f4f" d="M12.04 5C8.245 5 4.831 6.312 2 8.348L12.04 19 22 8.31C19.179 6.297 15.803 5 12.04 5z"/><path style="fill:#797979" d="M12 7.797c-3.022 0-5.826.965-8.078 2.595L12.042 19l8.036-8.609A13.758 13.758 0 0 0 12 7.797z"/><path style="fill:#f4f4f7" d="M12 10.598c-2.266 0-4.37.723-6.059 1.946L12.031 19l6.027-6.456A10.317 10.317 0 0 0 12 10.598z"/><path style="opacity:.1;fill:#f4f4f7" d="M12.04 5C8.245 5 4.831 6.313 2 8.348l.27.286c2.778-1.928 6.094-3.167 9.77-3.167 3.646 0 6.925 1.224 9.691 3.13L22 8.31C19.178 6.297 15.802 5 12.038 5z"/><path style="opacity:.1;fill:#f4f4f7" d="M12 7.796a13.76 13.76 0 0 0-8.078 2.596l.27.286A13.758 13.758 0 0 1 12 8.263c2.905 0 5.603.9 7.808 2.417l.27-.288A13.752 13.752 0 0 0 12 7.796z"/><path style="opacity:.1;fill:#f4f4f7" d="M12 10.597c-2.266 0-4.37.724-6.059 1.947l.27.286A10.32 10.32 0 0 1 12 11.064c2.15 0 4.147.658 5.79 1.768l.268-.288a10.313 10.313 0 0 0-6.057-1.947z"/></svg>
